pc-98/_inc/system.svg

<svg xmlns="http://www.w3.org/2000/svg"><g fill="#fff"><path d="m0 140.746 7.76-45.147-6.428-6.506 14.187-15.44 29.863 36.133 7.76-36.133 14.265 7.759-11.679 6.427-10.346 51.574-33.703-37.387-3.919 23.201 7.759 7.759z"/><path d="m93.351 81.02h6.662c4.781 0 7.995.235 9.641.784 2.821.862 3.527 2.273 4.781 4.233 1.254 1.881 3.135 5.094 3.135 9.405l4.311-17.949h-52.044l-.314 1.568h2.116c2.038 0 2.273.392 3.292 1.254.706.548 1.098 1.411 1.254 2.43 0 .627-.235 2.351-.862 5.094l-3.605 16.852c-.549.941-1.568 1.489-2.43 2.116-1.646 1.098-3.214 1.646-3.214 1.646s1.411.235 2.509 1.333c.705.705 1.254 1.567 1.567 1.881l-3.292 16.146c-.627 3.057-1.254 4.938-1.724 5.644-.627 1.018-1.411 1.724-2.352 2.194-1.254.627-2.9.941-2.9.941l-.313 1.567h49.771l3.527-18.105c-2.665 5.329-3.135 8.229-7.289 10.816s-7.916 3.919-13.873 3.919h-3.841c-1.803 0-3.057-.235-3.762-.705-.706-.471-1.176-1.098-1.254-1.803-.157-.706.157-2.743.862-6.114l3.605-15.754c3.057 0 5.252.392 6.741 1.175 1.411.784 2.273.863 3.684 2.665 1.646 2.195 3.841 3.292 3.449 6.819l4.703-24.376c-1.49 4.703-4.233 5.252-7.447 6.976-2.978 1.568-5.173 2.195-9.17 2.195h-1.254z"/><path d="m161.933 138.159 10.346-21.946s-11.208 7.054-20.692 6.505c-9.092-.548-16.46-8.621-15.284-17.792 2.273-18.654 21.711-23.592 21.711-23.592l7.76 11.6 9.092-2.587-6.349-16.93s-11.914.706-23.749 7.211c-12.149 6.663-24.219 19.36-22.965 32.92 2.821 31.587 28.452 27.198 31.117 27.119 2.586 0 9.013-2.508 9.013-2.508z"/><path d="m266.963 66.99h-8.074l6.506-13.168c-1.803 0-6.662-.94-8.465-2.508-2.273-2.116-4.154-6.27-2.9-11.287 1.411-5.486 7.603-9.719 14.422-7.994 4.859 1.254 7.681 3.684 8.465 8.935.392 2.43.235 4.781-1.411 8.387zm-6.036-23.749c0 5.722 8.857 5.879 8.857.235 0-5.957-8.857-5.957-8.857-.235z"/><path d="m288.36 31.954c7.76-1.019 14.579 5.095 12.149 13.09-.392 1.254-2.508 3.919-2.508 3.919s3.292 2.978 3.606 4.938c1.489 8.151-4.625 12.854-10.817 13.089-6.584.157-13.795-4.232-12.384-12.619.157-1.097.941-2.195 1.333-2.9.391-.705 2.194-2.508 2.194-2.508s-2.43-3.841-2.665-5.487c-.784-5.878 2.744-10.66 9.092-11.522zm-1.489 9.719c0 4.233 6.427 4.233 6.427.236 0-4.468-6.427-4.546-6.427-.236zm3.292 18.655c5.016 0 5.016-7.525-.078-7.525-5.173 0-5.017 7.525.078 7.525z"/><path d="m315.402 31.954c3.919-.392 7.367 1.019 9.327 2.9 5.8 5.487 6.74 23.671-.235 29.706-2.822 2.509-8.779 3.763-13.325 1.568-4.311-2.116-6.897-7.838-7.289-14.422-.706-10.346 2.273-18.811 11.522-19.752zm1.332 28.374c6.897-.157 6.662-23.279-1.097-21.241-5.487 1.332-5.409 21.319 1.097 21.241z"/><path d="m342.835 31.719c3.919-.392 7.367 1.019 9.327 2.9 5.8 5.487 6.74 23.671-.235 29.706-2.822 2.508-8.779 3.763-13.325 1.568-4.311-2.116-6.897-7.838-7.289-14.422-.706-10.346 2.273-18.811 11.522-19.752zm1.332 28.374c6.897-.157 6.662-23.279-1.097-21.241-5.487 1.332-5.409 21.319 1.097 21.241z"/><path d="m233.259 32.268v6.897c-18.811-5.094-18.654 25.395-.235 20.301v6.897c-28.53 7.054-28.687-40.679.235-34.095z"/><path d="m197.988 52.803v-6.819c3.292 0 5.33-1.175 5.33-3.527 0-1.959-.314-3.919-7.054-3.919v28.452h-7.211l.157-35.428h6.975c13.403.079 14.971 5.409 14.971 10.66 0 7.446-5.251 10.581-13.168 10.581z"/><path d="m376.538 34.149v6.662h-15.519v-6.662z"/><path d="m478.354 66.677h-7.368c-.862-3.527-5.643-9.798-5.643-9.798l-8.073 8.308c-1.49 1.49-4.155 1.49-6.898 1.49h-2.273v-6.271h1.568c1.646 0 3.135-.156 4.389-1.411l14.108-14.892c1.49-1.489.706-3.605-1.881-3.605l-18.184.078v-6.427h18.263c8.857 0 11.443 9.484 8.23 12.933l-4.625 4.781c.078 0 7.916 11.287 8.387 14.814z"/><path d="m401.384 34.149v15.519h-7.132v-15.519z"/><path d="m419.098 34.149v20.222c0 6.819-5.094 11.914-11.443 11.914h-13.325v-6.663h12.384c3.449 0 5.33-1.802 5.33-5.486s0-19.987 0-19.987z"/><path d="m390.411 35.952v18.341c0 6.975-6.348 11.992-12.07 11.992h-17.322v-7.054h17.243c2.9 0 5.173-1.568 5.173-4.782v-18.419z"/><path d="m376.538 51.001h-15.519v-6.584h15.519z"/><path d="m233.494 47.003h17.244v5.33h-17.244z"/><path d="m449.667 47.238v6.428h-27.747v-6.428z"/><circle cx="480.784" cy="36.892" r="2.9"/><circle cx="487.995" cy="36.892" r="2.9"/><path d="m392.763 174.763h-22.887l18.497-37.309c-5.016 0-18.811-2.665-23.827-7.211-6.506-5.879-11.836-17.792-8.152-31.979 4.076-15.598 21.633-27.433 40.68-22.574 13.638 3.449 21.633 10.347 23.984 25.317 1.097 6.898.627 13.56-3.919 23.749zm-16.93-67.015c0 16.225 25.081 16.695 25.081.627 0-16.773-25.081-16.93-25.081-.627z"/><path d="m456.721 75.847c22.025-2.822 41.228 14.5 34.487 36.996-1.019 3.527-7.054 11.051-7.054 11.051s9.17 8.544 10.189 14.03c4.233 22.966-13.089 36.447-30.725 36.996-18.654.548-39.111-12.071-35.114-35.742.549-3.213 2.665-6.27 3.762-8.151 1.098-1.881 6.192-7.133 6.192-7.133s-6.819-10.816-7.446-15.441c-2.273-16.773 7.681-30.333 25.709-32.606zm-4.389 27.512c0 12.07 18.184 11.913 18.184.627 0-12.776-18.184-12.933-18.184-.627zm9.405 52.593c14.187 0 14.265-21.32-.235-21.32-14.579.079-14.187 21.32.235 21.32z"/><path d="m533.141 75.847c11.13-1.097 20.85 2.9 26.336 8.152 16.303 15.597 18.968 66.858-.627 83.945-8.073 7.054-24.846 10.659-37.622 4.389-12.228-6.035-19.439-22.103-20.693-40.679-1.881-29.236 6.506-53.142 32.606-55.807zm3.763 80.105c19.595-.392 18.811-65.761-3.136-60.118-15.519 3.997-15.284 60.588 3.136 60.118z"/><path d="m320.183 76.631v19.438c-53.22-14.343-52.828 71.718-.706 57.453v19.438c-80.731 20.144-81.123-114.984.706-96.329z"/><path d="m214.056 134.867.078-19.36c9.406 0 15.049-3.291 15.049-10.111 0-5.643-.94-11.208-19.987-11.208l.079 80.575h-20.457l.235-100.092h19.752c37.936.157 42.403 15.363 42.403 30.098-.078 21.163-14.814 30.098-37.152 30.098z"/><path d="m322.848 85.121h23.592v13.325h-23.592z" transform="matrix(1.000001 0 0 1 -.000418 31.562393)"/><path d="m580.64 75.612h19.36v99.151h-19.36z"/></g></svg>

<?xml version="1.0" encoding="utf-8"?>
<svg xmlns="http://www.w3.org/2000/svg">
  <polygon class="st1" points="0 140.746 7.76 95.599 1.332 89.093 15.519 73.653 45.382 109.786 53.142 73.653 67.407 81.412 55.728 87.839 45.382 139.413 11.679 102.026 7.76 125.227 15.519 132.986" style="fill: rgb(255, 255, 255);"/>
  <path class="st1" d="M 93.351 81.02 L 100.013 81.02 C 104.794 81.02 108.008 81.255 109.654 81.804 C 112.475 82.666 113.181 84.077 114.435 86.037 C 115.689 87.918 117.57 91.131 117.57 95.442 L 121.881 77.493 L 69.837 77.493 L 69.523 79.061 L 71.639 79.061 C 73.677 79.061 73.912 79.453 74.931 80.315 C 75.637 80.863 76.029 81.726 76.185 82.745 C 76.185 83.372 75.95 85.096 75.323 87.839 L 71.718 104.691 C 71.169 105.632 70.15 106.18 69.288 106.807 C 67.642 107.905 66.074 108.453 66.074 108.453 C 66.074 108.453 67.485 108.688 68.583 109.786 C 69.288 110.491 69.837 111.353 70.15 111.667 L 66.858 127.813 C 66.231 130.87 65.604 132.751 65.134 133.457 C 64.507 134.475 63.723 135.181 62.782 135.651 C 61.528 136.278 59.882 136.592 59.882 136.592 L 59.569 138.159 L 109.34 138.159 L 112.867 120.054 C 110.202 125.383 109.732 128.283 105.578 130.87 C 101.424 133.457 97.662 134.789 91.705 134.789 L 87.864 134.789 C 86.061 134.789 84.807 134.554 84.102 134.084 C 83.396 133.613 82.926 132.986 82.848 132.281 C 82.691 131.575 83.005 129.538 83.71 126.167 L 87.315 110.413 C 90.372 110.413 92.567 110.805 94.056 111.588 C 95.467 112.372 96.329 112.451 97.74 114.253 C 99.386 116.448 101.581 117.545 101.189 121.072 L 105.892 96.696 C 104.402 101.399 101.659 101.948 98.445 103.672 C 95.467 105.24 93.272 105.867 89.275 105.867 L 88.021 105.867 L 93.351 81.02 Z" style="fill: rgb(255, 255, 255);"/>
  <path class="st1" d="M 161.933 138.159 L 172.279 116.213 C 172.279 116.213 161.071 123.267 151.587 122.718 C 142.495 122.17 135.127 114.097 136.303 104.926 C 138.576 86.272 158.014 81.334 158.014 81.334 L 165.774 92.934 L 174.866 90.347 L 168.517 73.417 C 168.517 73.417 156.603 74.123 144.768 80.628 C 132.619 87.291 120.549 99.988 121.803 113.548 C 124.624 145.135 150.255 140.746 152.92 140.667 C 155.506 140.667 161.933 138.159 161.933 138.159 Z" style="fill: rgb(255, 255, 255);"/>
  <path class="st1" d="M 266.963 66.99 L 258.889 66.99 L 265.395 53.822 C 263.592 53.822 258.733 52.882 256.93 51.314 C 254.657 49.198 252.776 45.044 254.03 40.027 C 255.441 34.541 261.633 30.308 268.452 32.033 C 273.311 33.287 276.133 35.717 276.917 40.968 C 277.309 43.398 277.152 45.749 275.506 49.355 L 266.963 66.99 Z M 260.927 43.241 C 260.927 48.963 269.784 49.12 269.784 43.476 C 269.784 37.519 260.927 37.519 260.927 43.241 Z" style="fill: rgb(255, 255, 255);"/>
  <path class="st1" d="M 288.36 31.954 C 296.12 30.935 302.939 37.049 300.509 45.044 C 300.117 46.298 298.001 48.963 298.001 48.963 C 298.001 48.963 301.293 51.941 301.607 53.901 C 303.096 62.052 296.982 66.755 290.79 66.99 C 284.206 67.147 276.995 62.758 278.406 54.371 C 278.563 53.274 279.347 52.176 279.739 51.471 C 280.13 50.766 281.933 48.963 281.933 48.963 C 281.933 48.963 279.503 45.122 279.268 43.476 C 278.484 37.598 282.012 32.816 288.36 31.954 Z M 286.871 41.673 C 286.871 45.906 293.298 45.906 293.298 41.909 C 293.298 37.441 286.871 37.363 286.871 41.673 Z M 290.163 60.328 C 295.179 60.328 295.179 52.803 290.085 52.803 C 284.912 52.803 285.068 60.328 290.163 60.328 Z" style="fill: rgb(255, 255, 255);"/>
  <path class="st1" d="M 315.402 31.954 C 319.321 31.562 322.769 32.973 324.729 34.854 C 330.529 40.341 331.469 58.525 324.494 64.56 C 321.672 67.069 315.715 68.323 311.169 66.128 C 306.858 64.012 304.272 58.29 303.88 51.706 C 303.174 41.36 306.153 32.895 315.402 31.954 Z M 316.734 60.328 C 323.631 60.171 323.396 37.049 315.637 39.087 C 310.15 40.419 310.228 60.406 316.734 60.328 Z" style="fill: rgb(255, 255, 255);"/>
  <path class="st1" d="M 342.835 31.719 C 346.754 31.327 350.202 32.738 352.162 34.619 C 357.962 40.106 358.902 58.29 351.927 64.325 C 349.105 66.833 343.148 68.088 338.602 65.893 C 334.291 63.777 331.705 58.055 331.313 51.471 C 330.607 41.125 333.586 32.66 342.835 31.719 Z M 344.167 60.093 C 351.064 59.936 350.829 36.814 343.07 38.852 C 337.583 40.184 337.661 60.171 344.167 60.093 Z" style="fill: rgb(255, 255, 255);"/>
  <path class="st1" d="M 233.259 32.268 L 233.259 39.165 C 214.448 34.071 214.605 64.56 233.024 59.466 L 233.024 66.363 C 204.494 73.417 204.337 25.684 233.259 32.268 Z" style="fill: rgb(255, 255, 255);"/>
  <path class="st1" d="M 197.988 52.803 L 197.988 45.984 C 201.28 45.984 203.318 44.809 203.318 42.457 C 203.318 40.498 203.004 38.538 196.264 38.538 L 196.264 66.99 L 189.053 66.99 L 189.21 31.562 L 196.185 31.562 C 209.588 31.641 211.156 36.971 211.156 42.222 C 211.156 49.668 205.905 52.803 197.988 52.803 Z" style="fill: rgb(255, 255, 255);"/>
  <polygon class="st1" points="376.538 34.149 376.538 40.811 361.019 40.811 361.019 34.149" style="fill: rgb(255, 255, 255);"/>
  <path class="st1" d="M 478.354 66.677 L 470.986 66.677 C 470.124 63.15 465.343 56.879 465.343 56.879 L 457.27 65.187 C 455.78 66.677 453.115 66.677 450.372 66.677 L 448.099 66.677 L 448.099 60.406 L 449.667 60.406 C 451.313 60.406 452.802 60.25 454.056 58.995 L 468.164 44.103 C 469.654 42.614 468.87 40.498 466.283 40.498 L 448.099 40.576 L 448.099 34.149 L 466.362 34.149 C 475.219 34.149 477.805 43.633 474.592 47.082 L 469.967 51.863 C 470.045 51.863 477.883 63.15 478.354 66.677 Z" style="fill: rgb(255, 255, 255);"/>
  <polygon class="st1" points="401.384 34.149 401.384 49.668 394.252 49.668 394.252 34.149" style="fill: rgb(255, 255, 255);"/>
  <path class="st1" d="M 419.098 34.149 L 419.098 54.371 C 419.098 61.19 414.004 66.285 407.655 66.285 L 394.33 66.285 L 394.33 59.622 L 406.714 59.622 C 410.163 59.622 412.044 57.82 412.044 54.136 C 412.044 50.452 412.044 34.149 412.044 34.149 L 419.098 34.149 Z" style="fill: rgb(255, 255, 255);"/>
  <path class="st1" d="M 390.411 35.952 L 390.411 54.293 C 390.411 61.268 384.063 66.285 378.341 66.285 L 361.019 66.285 L 361.019 59.231 L 378.262 59.231 C 381.162 59.231 383.435 57.663 383.435 54.449 L 383.435 36.03 L 390.411 35.952 Z" style="fill: rgb(255, 255, 255);"/>
  <polygon class="st1" points="376.538 51.001 361.019 51.001 361.019 44.417 376.538 44.417" style="fill: rgb(255, 255, 255);"/>
  <rect x="233.494" y="47.003" class="st1" width="17.244" height="5.33" style="fill: rgb(255, 255, 255);"/>
  <polygon class="st1" points="449.667 47.238 449.667 53.666 421.92 53.666 421.92 47.238" style="fill: rgb(255, 255, 255);"/>
  <circle class="st1" cx="480.784" cy="36.892" r="2.9" style="fill: rgb(255, 255, 255);"/>
  <circle class="st1" cx="487.995" cy="36.892" r="2.9" style="fill: rgb(255, 255, 255);"/>
  <path class="st1" d="M 392.763 174.763 L 369.876 174.763 L 388.373 137.454 C 383.357 137.454 369.562 134.789 364.546 130.243 C 358.04 124.364 352.71 112.451 356.394 98.264 C 360.47 82.666 378.027 70.831 397.074 75.69 C 410.712 79.139 418.707 86.037 421.058 101.007 C 422.155 107.905 421.685 114.567 417.139 124.756 L 392.763 174.763 Z M 375.833 107.748 C 375.833 123.973 400.914 124.443 400.914 108.375 C 400.914 91.602 375.833 91.445 375.833 107.748 Z" style="fill: rgb(255, 255, 255);"/>
  <path class="st1" d="M 456.721 75.847 C 478.746 73.025 497.949 90.347 491.208 112.843 C 490.189 116.37 484.154 123.894 484.154 123.894 C 484.154 123.894 493.324 132.438 494.343 137.924 C 498.576 160.89 481.254 174.371 463.618 174.92 C 444.964 175.468 424.507 162.849 428.504 139.178 C 429.053 135.965 431.169 132.908 432.266 131.027 C 433.364 129.146 438.458 123.894 438.458 123.894 C 438.458 123.894 431.639 113.078 431.012 108.453 C 428.739 91.68 438.693 78.12 456.721 75.847 Z M 452.332 103.359 C 452.332 115.429 470.516 115.272 470.516 103.986 C 470.516 91.21 452.332 91.053 452.332 103.359 Z M 461.737 155.952 C 475.924 155.952 476.002 134.632 461.502 134.632 C 446.923 134.711 447.315 155.952 461.737 155.952 Z" style="fill: rgb(255, 255, 255);"/>
  <path class="st1" d="M 533.141 75.847 C 544.271 74.75 553.991 78.747 559.477 83.999 C 575.78 99.596 578.445 150.857 558.85 167.944 C 550.777 174.998 534.004 178.603 521.228 172.333 C 509 166.298 501.789 150.23 500.535 131.654 C 498.654 102.418 507.041 78.512 533.141 75.847 Z M 536.904 155.952 C 556.499 155.56 555.715 90.191 533.768 95.834 C 518.249 99.831 518.484 156.422 536.904 155.952 Z" style="fill: rgb(255, 255, 255);"/>
  <path class="st1" d="M 320.183 76.631 L 320.183 96.069 C 266.963 81.726 267.355 167.787 319.477 153.522 L 319.477 172.96 C 238.746 193.104 238.354 57.976 320.183 76.631 Z" style="fill: rgb(255, 255, 255);"/>
  <path class="st1" d="M 214.056 134.867 L 214.134 115.507 C 223.54 115.507 229.183 112.216 229.183 105.396 C 229.183 99.753 228.243 94.188 209.196 94.188 L 209.275 174.763 L 188.818 174.763 L 189.053 74.671 L 208.805 74.671 C 246.741 74.828 251.208 90.034 251.208 104.769 C 251.13 125.932 236.394 134.867 214.056 134.867 Z" style="fill: rgb(255, 255, 255);"/>
  <rect x="322.848" y="85.121" class="st1" width="23.592" height="13.325" transform="matrix(1.000001, 0, 0, 1, -0.000418, 31.562393)" style="fill: rgb(255, 255, 255);"/>
  <rect x="580.64" y="75.612" class="st1" width="19.36" height="99.151" style="fill: rgb(255, 255, 255);"/>
</svg>
